X:2338
T:Grand Frisé
O:england
M:3/4
L:1/8
K:G
Bd|g3f ed|f4 AB|c3d ef|e2d2 Bd|\
g3f ed|f4 AB|cB cd (3cBA|G4:|
|:GA|B3A GB|d4 ed|A3 c BA|BA G2 GA|\
B3A GB|d4 ed|fe dc BA|G4:|


